icons/hexagon-chevron-up.svg

<svg xmlns="http://www.w3.org/2000/svg" width="24" height="24" viewBox="0 0 24 24">
  <path d="M16.3173342,1 C17.0224657,1 17.6754933,1.37131518 18.0360686,1.97728201 L23.3914405,10.977282 C23.7664613,11.6075253 23.7664613,12.3924747 23.3914405,13.022718 L18.0360686,22.022718 C17.6754933,22.6286848 17.0224657,23 16.3173342,23 L7.68266576,23 C6.97753431,23 6.32450667,22.6286848 5.96393136,22.022718 L0.608559463,13.022718 C0.233538656,12.3924747 0.233538656,11.6075253 0.608559463,10.977282 L5.96393136,1.97728201 C6.32450667,1.37131518 6.97753431,1 7.68266576,1 L16.3173342,1 Z M12.6128994,9.20970461 C12.2206082,8.90467972 11.6533772,8.93240926 11.2928932,9.29289322 L11.2928932,9.29289322 L7.29289322,13.2928932 L7.20970461,13.3871006 C6.90467972,13.7793918 6.93240926,14.3466228 7.29289322,14.7071068 L7.29289322,14.7071068 L7.38710056,14.7902954 C7.77939176,15.0953203 8.34662282,15.0675907 8.70710678,14.7071068 L8.70710678,14.7071068 L12,11.415 L15.2928932,14.7071068 L15.3871006,14.7902954 C15.7793918,15.0953203 16.3466228,15.0675907 16.7071068,14.7071068 C17.0976311,14.3165825 17.0976311,13.6834175 16.7071068,13.2928932 L16.7071068,13.2928932 L12.7071068,9.29289322 Z"/>
</svg>

<svg xmlns="http://www.w3.org/2000/svg" viewBox="0 0 24 24">
  <path d="M16.32 1a2 2 0 0 1 1.72.98l5.35 9a2 2 0 0 1 0 2.04l-5.35 9a2 2 0 0 1-1.72.98H7.68a2 2 0 0 1-1.72-.98l-5.35-9a2 2 0 0 1 0-2.04l5.35-9A2 2 0 0 1 7.68 1h8.64zm-3.7 8.21a1 1 0 0 0-1.33.08l-4 4-.08.1a1 1 0 0 0 .08 1.32l.1.08a1 1 0 0 0 1.32-.08L12 11.4l3.3 3.3.09.08a1 1 0 0 0 1.32-1.5l-4-4z"/>
</svg>
